symbols/web/gesture/materialsymbolsrounded/gesture_wght700_24px.svg

<svg xmlns="http://www.w3.org/2000/svg" height="24" width="24"><path d="M14.275 21.675q-1.55 0-2.637-1.137-1.088-1.138-1.088-2.763 0-.9.413-1.8.412-.9 1.125-1.663.712-.762 1.7-1.325.987-.562 2.112-.737-.05-.65-.375-.938-.325-.287-.825-.287-.725 0-1.612.612Q12.2 12.25 11 13.75q-1.7 2.15-2.837 2.988-1.138.837-2.338.837-1.5 0-2.55-1.087-1.05-1.088-1.05-2.688 0-1.15.55-2.4t1.8-2.9q.875-1.175 1.15-1.613Q6 6.45 6 6.175 6 6 5.925 5.912q-.075-.087-.2-.087-.075 0-.163.037-.087.038-.212.113-.675.425-1.288.425-.612 0-1.037-.425-.5-.5-.512-1.188Q2.5 4.1 3 3.7q.65-.525 1.4-.85.75-.325 1.475-.325 1.425 0 2.375.987.95.988.95 2.263 0 1.075-.437 2.1-.438 1.025-1.488 2.45-1.05 1.4-1.425 2.113-.375.712-.375 1.162 0 .275.125.425.125.15.325.15.3 0 .788-.475.487-.475 1.787-2.05 1.65-2 3.088-2.95 1.437-.95 3.112-.95 1.85 0 3.063 1.162 1.212 1.163 1.412 3.188h.975q.675 0 1.15.475.475.475.475 1.15 0 .675-.475 1.15-.475.475-1.15.475h-.95q-.25 2.95-1.638 4.638-1.387 1.687-3.287 1.687Zm.05-3.325q.575 0 .937-.725.363-.725.613-2.025-.975.275-1.512.888-.538.612-.538 1.237 0 .275.138.45.137.175.362.175Z"/></svg>

<svg xmlns="http://www.w3.org/2000/svg" height="24" width="24"><path d="M14.275 21.675Q12.725 21.675 11.638 20.538Q10.55 19.4 10.55 17.775Q10.55 16.875 10.963 15.975Q11.375 15.075 12.088 14.312Q12.8 13.55 13.788 12.987Q14.775 12.425 15.9 12.25Q15.85 11.6 15.525 11.312Q15.2 11.025 14.7 11.025Q13.975 11.025 13.088 11.637Q12.2 12.25 11 13.75Q9.3 15.9 8.163 16.738Q7.025 17.575 5.825 17.575Q4.325 17.575 3.275 16.488Q2.225 15.4 2.225 13.8Q2.225 12.65 2.775 11.4Q3.325 10.15 4.575 8.5Q5.45 7.325 5.725 6.887Q6 6.45 6 6.175Q6 6 5.925 5.912Q5.85 5.825 5.725 5.825Q5.65 5.825 5.562 5.862Q5.475 5.9 5.35 5.975Q4.675 6.4 4.062 6.4Q3.45 6.4 3.025 5.975Q2.525 5.475 2.513 4.787Q2.5 4.1 3 3.7Q3.65 3.175 4.4 2.85Q5.15 2.525 5.875 2.525Q7.3 2.525 8.25 3.512Q9.2 4.5 9.2 5.775Q9.2 6.85 8.763 7.875Q8.325 8.9 7.275 10.325Q6.225 11.725 5.85 12.438Q5.475 13.15 5.475 13.6Q5.475 13.875 5.6 14.025Q5.725 14.175 5.925 14.175Q6.225 14.175 6.713 13.7Q7.2 13.225 8.5 11.65Q10.15 9.65 11.588 8.7Q13.025 7.75 14.7 7.75Q16.55 7.75 17.763 8.912Q18.975 10.075 19.175 12.1H20.15Q20.825 12.1 21.3 12.575Q21.775 13.05 21.775 13.725Q21.775 14.4 21.3 14.875Q20.825 15.35 20.15 15.35H19.2Q18.95 18.3 17.562 19.988Q16.175 21.675 14.275 21.675ZM14.325 18.35Q14.9 18.35 15.262 17.625Q15.625 16.9 15.875 15.6Q14.9 15.875 14.363 16.488Q13.825 17.1 13.825 17.725Q13.825 18 13.963 18.175Q14.1 18.35 14.325 18.35Z"/></svg>
